images/dist/phone.svg

<svg width="30" height="30" viewBox="0 0 30 30" fill="none" xmlns="http://www.w3.org/2000/svg">
<g clip-path="url(#clip0_70_117)">
<path d="M9.66211 1.44138C9.21094 0.351541 8.02149 -0.228537 6.88477 0.0820096L1.72852 1.48826C0.708984 1.76951 0 2.69529 0 3.74998C0 18.2461 11.7539 30 26.25 30C27.3047 30 28.2305 29.291 28.5117 28.2715L29.918 23.1152C30.2285 21.9785 29.6484 20.789 28.5586 20.3379L22.9336 17.9941C21.9785 17.5957 20.8711 17.8711 20.2207 18.6738L17.8535 21.5625C13.7285 19.6113 10.3887 16.2715 8.4375 12.1465L11.3262 9.78514C12.1289 9.12889 12.4043 8.02732 12.0059 7.07224L9.66211 1.44724V1.44138Z" fill="white"/>
</g>
<defs>
<clipPath id="clip0_70_117">
<rect width="30" height="30" fill="white"/>
</clipPath>
</defs>
</svg>

<svg width="30" height="30" fill="none" xmlns="http://www.w3.org/2000/svg"><g clip-path="url(#a)"><path d="M9.662 1.441A2.336 2.336 0 0 0 6.885.082L1.729 1.488A2.35 2.35 0 0 0 0 3.75C0 18.246 11.754 30 26.25 30a2.35 2.35 0 0 0 2.262-1.729l1.406-5.156a2.337 2.337 0 0 0-1.36-2.777l-5.624-2.344a2.336 2.336 0 0 0-2.713.68l-2.367 2.889a19.803 19.803 0 0 1-9.416-9.416l2.888-2.362a2.339 2.339 0 0 0 .68-2.713L9.662 1.447v-.006Z" fill="#fff"/></g><defs><clipPath id="a"><path fill="#fff" d="M0 0h30v30H0z"/></clipPath></defs></svg>
